**kern	**silbe	**kern	**silbe
*ICvox	*	*ICvox	*
*D:	*	*D:	*
*M4/4	*	*M4/4	*
*clefG2	*	*clefG2	*
r;	.	r;	.
r;	.	r;	.
=1	=1	=1	=1
1r	.	1r	.
=2	=2	=2	=2
1r	.	1r	.
=3	=3	=3	=3
1r	.	1r	.
=4	=4	=4	=4
1r	.	1r	.
=5	=5	=5	=5
1r	.	1r	.
=6	=6	=6	=6
1r	.	1r	.
=7	=7	=7	=7
1r	.	1r	.
=8	=8	=8	=8
1r	.	1r	.
=9	=9	=9	=9
1r	.	1r	.
=10	=10	=10	=10
1r	.	1r	.
=11	=11	=11	=11
1r	.	1r	.
=12	=12	=12	=12
1r	.	1r	.
=13	=13	=13	=13
1r	.	1r	.
=14	=14	=14	=14
1r	.	1r	.
=15	=15	=15	=15
1r	.	1r	.
=16	=16	=16	=16
1r	.	1r	.
=17	=17	=17	=17
1r	.	1r	.
=18	=18	=18	=18
1r	.	1r	.
=19	=19	=19	=19
1r	.	1r	.
=20	=20	=20	=20
1r	.	1r	.
=21	=21	=21	=21
1r	.	1r	.
=22	=22	=22	=22
1r	.	1r	.
=23	=23	=23	=23
1r	.	1r	.
=24	=24	=24	=24
1r	.	1r	.
=25	=25	=25	=25
1r	.	1r	.
=26	=26	=26	=26
1r	.	1r	.
=27	=27	=27	=27
1r	.	1r	.
=28	=28	=28	=28
1r	.	1r	.
=29	=29	=29	=29
8dd	Eve-	1r	.
8g	-ry-	.	.
8g	-bo-	.	.
8f	-dy's	.	.
8g	loo-	.	.
8f	-kin'	.	.
8d	for	.	.
8f	some-	.	.
=30	=30	=30	=30
4d	-thin'	1r	.
4r	.	.	.
2r	.	.	.
=31	=31	=31	=31
8r	.	1r	.
8a	Some-	.	.
8g	-thin'	.	.
8f	to	.	.
8g	fill	.	.
8f	in	.	.
8d	the	.	.
16f	holes	.	.
[16d	_	.	.
=32	=32	=32	=32
4d]	_	1r	.
4r	.	.	.
2r	.	.	.
=33	=33	=33	=33
8r	.	1r	.
8dd	We	.	.
16g	think	.	.
16f	a	.	.
8g	lot	.	.
8r	.	.	.
8f	but	.	.
8g	don't	.	.
8r	.	.	.
=34	=34	=34	=34
8g	talk	1r	.
8g	much	.	.
8f	a-	.	.
16a	-bout	.	.
[16f	it	.	.
4f]	_	.	.
4r	.	.	.
=35	=35	=35	=35
8r	.	1r	.
8c	till	.	.
8d	things	.	.
8a	get	.	.
8g	out	.	.
8f	of	.	.
8d	con-	.	.
8f	-trol	.	.
=36	=36	=36	=36
8d	_	1r	.
16A	_	.	.
16G	_	.	.
4r	.	.	.
8r	.	.	.
4b	Oh!	.	.
8r	.	.	.
=37	=37	=37	=37
1r	.	8f#	How
.	.	8g	do
.	.	8a	I
.	.	4a	know
.	.	8g	when
.	.	8f#	it's
.	.	[8e	love?
=38	=38	=38	=38
2r	.	4e]	_
.	.	4r	.
8b	I	2r	.
4cc#	can't	.	.
[8dd	tell	.	.
=39	=39	=39	=39
8dd]	_	1r	.
8b	you	.	.
8f#	but	.	.
8d	it	.	.
8d	last	.	.
4f#	for-	.	.
8f#	-e-	.	.
=40	=40	=40	=40
4e	-ver	1r	.
4r	.	.	.
8r	.	.	.
4b	Oh	.	.
[8a	_	.	.
=41	=41	=41	=41
8a]	_	8f#	How
8r	.	8g	does
4r	.	8a	it
.	.	[8a	feel-
2r	.	8a]	_
.	.	8g	-when
.	.	8f#	it's
.	.	[8e	love?
=42	=42	=42	=42
4r	.	4e]	_
4r	.	4r	.
8b	It's	2r	.
4cc#	just	.	.
[8dd	some-	.	.
=43	=43	=43	=43
8dd]	_	1r	.
8b	-thing	.	.
8f#	you	.	.
8d	feel	.	.
4r	.	.	.
8f#	to-	.	.
8f#	-ge-	.	.
=44	=44	=44	=44
4e	-ther	1r	.
4r	.	.	.
8r	.	.	.
8b	When	.	.
8b	it's	.	.
8a	love	.	.
=45	=45	=45	=45
2f#	_	1r	.
2r	.	.	.
=46	=46	=46	=46
1r	.	1r	.
=47	=47	=47	=47
1r	.	1r	.
=48	=48	=48	=48
1r	.	1r	.
=49	=49	=49	=49
8r	.	1r	.
8dd	You	.	.
8dd	look	.	.
8f	at	.	.
8g	eve-	.	.
8f	-ry	.	.
8r	.	.	.
[8a	face	.	.
=50	=50	=50	=50
8a]	_	1r	.
16d	in	.	.
16d	the	.	.
8d	crowd	.	.
8f	_	.	.
2r	.	.	.
=51	=51	=51	=51
8r	.	1r	.
8a	Some	.	.
8g	shine	.	.
8f	and	.	.
8g	some	.	.
8g	keep	.	.
8a	you	.	.
8g	guess-	.	.
=52	=52	=52	=52
4f	-in'	1r	.
4r	.	.	.
2r	.	.	.
=53	=53	=53	=53
8dd	Wait-	1r	.
8a	-ing	.	.
8g	for	.	.
8g	some-	.	.
4f	-one	.	.
8r	.	.	.
8d	to	.	.
=54	=54	=54	=54
8g	come	1r	.
8g	in-	.	.
8f	-to	.	.
16a	fo-	.	.
[16f	-cus	.	.
4f]	_	.	.
4r	.	.	.
=55	=55	=55	=55
8r	.	1r	.
8c	Teach	.	.
8d	you	.	.
8a	your	.	.
8g	fi-	.	.
8f	-nal	.	.
8d	love	.	.
8f	le-	.	.
=56	=56	=56	=56
8d	-sson	1r	.
16A	_	.	.
16G	_	.	.
4r	.	.	.
2r	.	.	.
=57	=57	=57	=57
1r	.	8f#	How
.	.	8g	do
.	.	8a	I
.	.	4a	know
.	.	8g	when
.	.	8f#	it's
.	.	[8e	love?
=58	=58	=58	=58
2r	.	4e]	_
.	.	4r	.
8b	I	2r	.
4cc#	can't	.	.
[8dd	tell	.	.
=59	=59	=59	=59
8dd]	_	1r	.
8b	you	.	.
8f#	but	.	.
8d	it	.	.
8d	last	.	.
4f#	for-	.	.
8f#	-e-	.	.
=60	=60	=60	=60
4e	-ver	1r	.
4r	.	.	.
8r	.	.	.
4b	Oh	.	.
[8a	_	.	.
=61	=61	=61	=61
8a]	_	8f#	How
8r	.	8g	does
4r	.	8a	it
.	.	[8a	feel
2r	.	8a]	_
.	.	8g	when
.	.	8f#	it's
.	.	[8e	love?
=62	=62	=62	=62
4r	.	4e]	_
4r	.	4r	.
8b	It's	2r	.
4cc#	just	.	.
[8dd	some-	.	.
=63	=63	=63	=63
8dd]	_	1r	.
8b	-thing	.	.
8f#	you	.	.
8d	feel	.	.
4r	.	.	.
8f#	to-	.	.
8f#	-ge-	.	.
=64	=64	=64	=64
4e	-ther	1r	.
4r	.	.	.
2r	.	.	.
=65	=65	=65	=65
*C:	*	*C:	*
1r	.	4r	.
.	.	8cc	Oh
.	.	4.a	_
.	.	8cc	Oh
.	.	8b	_
=66	=66	=66	=66
8r	.	1r	.
2dd	Oh	.	.
16b	when	.	.
8.b	it's	.	.
16cc	love	.	.
16b	_	.	.
=67	=67	=67	=67
4a	_	4r	.
4r	.	8cc	Oh
.	.	[8a	_
2r	.	4a]	_
.	.	8cc	Oh
.	.	[8dd	_
=68	=68	=68	=68
8r	.	8dd]	_
8cc	You	8r	.
8b	can	4r	.
[8dd	feel	.	.
8dd]	_	2r	.
8.b	it	.	.
8.cc	yeah	.	.
=69	=69	=69	=69
1r	.	4r	.
.	.	8cc	Oh
.	.	[8a	_
.	.	4a]	_
.	.	8cc	Oh
.	.	8b	_
=70	=70	=70	=70
1r	.	1r	.
=71	=71	=71	=71
4ee	No-	1r	.
4ee	-thing's	.	.
8dd	miss-	.	.
[4.cc	-ing	.	.
=72	=72	=72	=72
2cc_	_	1r	.
8cc]	_	.	.
4a	yeah	.	.
8r	.	.	.
=73	=73	=73	=73
*D:	*	*D:	*
1r	.	1r	.
=74	=74	=74	=74
1r	.	1r	.
=75	=75	=75	=75
1r	.	1r	.
=76	=76	=76	=76
1r	.	1r	.
=77	=77	=77	=77
1r	.	1r	.
=78	=78	=78	=78
1r	.	1r	.
=79	=79	=79	=79
1r	.	1r	.
=80	=80	=80	=80
1r	.	1r	.
=81	=81	=81	=81
*C:	*	*C:	*
1r	.	4r	.
.	.	8cc	Oh
.	.	4.a	_
.	.	8cc	Oh
.	.	8b	_
=82	=82	=82	=82
4r	.	1r	.
4.dd	Yeah	.	.
16cc	you	.	.
16cc	can	.	.
8ff	feel	.	.
8ff	it	.	.
=83	=83	=83	=83
1r	.	4r	.
.	.	8cc	Oh
.	.	4.a	_
.	.	8cc	Oh
.	.	8dd	_
=84	=84	=84	=84
8r	.	1r	.
2dd	Oh	.	.
16b	when	.	.
8.b	it's	.	.
16cc	love	.	.
16b	_	.	.
=85	=85	=85	=85
4a	_	4r	.
4r	.	8cc	Oh
.	.	[8a	_
2r	.	4a]	_
.	.	8cc	Oh
.	.	8b	_
=86	=86	=86	=86
2r	.	1r	.
4.r	.	.	.
8a	When	.	.
=87	=87	=87	=87
4ee	no-	1r	.
4ee	-thing's	.	.
8dd	miss-	.	.
[4.cc	-ing	.	.
=88	=88	=88	=88
2cc_	_	1r	.
8cc]	_	.	.
8aa	Ow!	.	.
4r	.	.	.
=89	=89	=89	=89
*D:	*	*D:	*
1r	.	8f#	How
.	.	8g	do
.	.	8a	I
.	.	4a	know
.	.	8g	when
.	.	8f#	it's
.	.	[8e	love?
=90	=90	=90	=90
2r	.	4e]	_
.	.	4r	.
8b	I	2r	.
4cc#	can't	.	.
[8dd	tell	.	.
=91	=91	=91	=91
8dd]	_	1r	.
8b	you	.	.
8f#	but	.	.
8d	it	.	.
8d	last	.	.
4f#	for-	.	.
8f#	-e-	.	.
=92	=92	=92	=92
4e	-ver	1r	.
4r	.	.	.
8r	.	.	.
4b	Ooh	.	.
8a	_	.	.
=93	=93	=93	=93
1r	.	8f#	How
.	.	8g	does
.	.	8a	it
.	.	4a	feel
.	.	8g	when
.	.	8f#	it's
.	.	[8e	love?
=94	=94	=94	=94
2r	.	4e]	_
.	.	4r	.
8b	It's	2r	.
4cc#	just	.	.
[8dd	some-	.	.
=95	=95	=95	=95
8dd]	_	1r	.
8b	-thing	.	.
8f#	you	.	.
8d	feel	.	.
4r	.	.	.
8f#	to-	.	.
8f#	-ge-	.	.
=96	=96	=96	=96
4e	-ther	1r	.
4r	.	.	.
8r	.	.	.
4b	Hey	.	.
8r	.	.	.
=97	=97	=97	=97
1r	.	8f#	How
.	.	8g	do
.	.	8a	I
.	.	4a	know
.	.	8g	when
.	.	8f#	it's
.	.	[8e	love?
=98	=98	=98	=98
2r	.	4e]	_
.	.	4r	.
8b	I	2r	.
4cc#	can't	.	.
[8dd	tell	.	.
=99	=99	=99	=99
8dd]	_	1r	.
8b	you	.	.
8f#	but	.	.
8d	it	.	.
8d	last	.	.
4f#	for-	.	.
8f#	-e-	.	.
=100	=100	=100	=100
4e	-ver	1r	.
4r	.	.	.
8r	.	.	.
8b	When	.	.
8b	it's	.	.
8a	love	.	.
=101	=101	=101	=101
2f#	_	1r	.
2r	.	.	.
=102	=102	=102	=102
1r	.	1r	.
=103	=103	=103	=103
1r	.	1r	.
=104	=104	=104	=104
8r	.	1r	.
2b	Ooh	.	.
8b	when	.	.
8.a	it's	.	.
16a	love	.	.
=105	=105	=105	=105
8f#	_	1r	.
16e	_	.	.
[16d	_	.	.
4d]	_	.	.
2r	.	.	.
=106	=106	=106	=106
1r	.	1r	.
=107	=107	=107	=107
2.r	.	1r	.
8b	Hey!	.	.
8r	.	.	.
=108	=108	=108	=108
4r	.	1r	.
8r	.	.	.
8dd	It	.	.
4dd	lasts	.	.
8a	for-	.	.
8b	-e-	.	.
=109	=109	=109	=109
4a	-ver	4.f#	Na
4r	.	.	.
.	.	[8g	na
2r	.	4g]	_
.	.	[4a	na
=110	=110	=110	=110
2r	.	4a]	_
.	.	4.e	na
8r	.	.	.
16a	When	8c#	na
8.f#	it's	.	.
.	.	4r	.
[8b	love	.	.
=111	=111	=111	=111
4b]	_	4.f#	Na
4r	.	.	.
.	.	[8g	na
2r	.	4g]	_
.	.	[4a	na
=112	=112	=112	=112
1r	.	4a]	_
.	.	4.g	na
.	.	8d	na
.	.	4r	.
=113	=113	=113	=113
1r	.	4.f#	Na
.	.	[8g	na
.	.	4g]	_
.	.	[4a	na
=114	=114	=114	=114
1r	.	4a]	_
.	.	4.e	na
.	.	8c#	na
.	.	4r	.
=115	=115	=115	=115
4r	.	4.f#	Na
16b	You	.	.
16b	and	.	.
8b	I	[8g	na
2r	.	4g]	_
.	.	[4a	na
=116	=116	=116	=116
8r	.	4a]	_
8dd	We're	.	.
8dd	gon-	4.g	na
16dd	-na	.	.
8.dd	feel	.	.
8a	this	8d	na
[4b	way	4r	.
=117	=117	=117	=117
4..b]	_	4.f#	Na
.	.	[8g	na
16b	to-	.	.
8a	-ge-	4g]	_
8f#	-ther	.	.
4r	.	[4a	na
=118	=118	=118	=118
2r	.	4a]	_
.	.	4.e	na
8r	.	.	.
8a	When	8c#	na
8f#	it's	4r	.
[8b	love	.	.
=119	=119	=119	=119
4b]	_	4.f#	Na
4r	.	.	.
.	.	[8g	na
2r	.	4g]	_
.	.	[4a	na
=120	=120	=120	=120
8r	.	4a]	_
8dd	Ooh	.	.
8b	_	4.g	na
4a	_	.	.
8a	When	8d	na
8a	it's	4r	.
8b	love	.	.
=121	=121	=121	=121
4.a	_	4.f#	Na
16a	ba-	[8g	na
16a	-by	.	.
2r	.	4g]	_
.	.	[4a	na
=122	=122	=122	=122
1r	.	4a]	_
.	.	4.e	na
.	.	8c#	na
.	.	4r	.
=123	=123	=123	=123
1r	.	4.f#	Na
.	.	[8g	na
.	.	4g]	_
.	.	[4a	na
=124	=124	=124	=124
8r	.	4a]	_
16a	You	.	.
16a	can	.	.
8.b	feel	4.g	na
16dd	it	.	.
4r	.	.	.
.	.	8d	na
4dd	Yeah!	4r	.
=125	=125	=125	=125
1r	.	4.f#	Na
.	.	[8g	na
.	.	4g]	_
.	.	[4a	na
=126	=126	=126	=126
1r	.	4a]	_
.	.	4.e	na
.	.	8c#	na
.	.	4r	.
=127	=127	=127	=127
1r	.	4.f#	Na
.	.	[8g	na
.	.	4g]	_
.	.	[4a	na
=128	=128	=128	=128
8r	.	4a]	_
8dd	We'll	.	.
8dd	make	4.g	na
8b	it	.	.
4dd	last	.	.
.	.	8d	na
8a	for-	4r	.
8b	-e-	.	.
=129	=129	=129	=129
4a	-ver	4.f#	Na
4r	.	.	.
.	.	[8g	na
2r	.	4g]	_
.	.	[4a	na
=130	=130	=130	=130
1r	.	4a]	_
.	.	4.e	na
.	.	8c#	na
.	.	4r	.
=131	=131	=131	=131
1r	.	4.f#	Na
.	.	[8g	na
.	.	4g]	_
.	.	[4a	na
=132	=132	=132	=132
8r	.	4a]	_
8dd	Ooh	.	.
8b	_	4.g	na
4a	_	.	.
8a	It's	8d	na
8r	.	4r	.
16f	love	.	.
16e	_	.	.
=133	=133	=133	=133
4d	_	1r	.
4r	.	.	.
2r	.	.	.
r;	.	r;	.
r;	.	r;	.
*-	*-	*-	*-
!!!ENC: Nathaniel Condit-Schultz
!!!MBID: 011567cb-383f-4e84-a985-9bfd95666740
